X:4275
T:Miss Rattray
O:england
M:4/4
L:1/8
R:r
K:D
A/B/c|"D"d2 AG FDDF|"A"GEEA "D"FDDA|"D"d2 AG FDDg|"D"fd"A"ec "D"d2:|| A2
|"D"defg affa|"G"beed "A"cAAc|"D"defg affa|"G"beec "D"d2 dA|"D"defg affa
|"Em"beed "A"cAAc| "G"BGGB "D"FDDg|"A"fdec "D"d2||


